public/img/old-svg/emoji.svg

<svg width="32" height="28" viewBox="0 0 32 28" fill="none" xmlns="http://www.w3.org/2000/svg">
<path d="M2.47431 13.6471C2.48725 21.0809 8.68444 27.1249 16.2803 27.1122C23.8763 27.0996 30.0745 21.042 30.0605 13.6219C30.0465 6.20174 23.8515 0.144123 16.2545 0.156758C8.65751 0.169393 2.4603 6.227 2.47431 13.6471ZM16.261 25.6507C13.0201 25.6211 9.92235 24.3423 7.64139 22.0926C5.36044 19.8428 4.0808 16.804 4.0808 13.6371C4.0808 10.4703 5.36044 7.43148 7.64139 5.18171C9.92235 2.93194 13.0201 1.65316 16.261 1.62352C23.0497 1.62352 28.5788 7.01882 28.5616 13.6377C28.5454 20.2828 23.0433 25.656 16.2599 25.6486L16.261 25.6507Z" fill="white"/>
<path d="M21.8719 19.7681L23.0195 18.8931C19.7415 14.657 12.9409 14.4854 9.51306 18.8931L10.6639 19.767C12.1327 18.0496 13.9753 17.103 16.2674 17.1104C18.5594 17.1178 20.3988 18.0475 21.8719 19.7681Z" fill="white"/>
<path d="M19.3825 10.6181C19.3802 10.8089 19.4165 10.9983 19.4893 11.1754C19.5622 11.3526 19.67 11.5139 19.8068 11.6501C19.9436 11.7864 20.1065 11.895 20.2863 11.9696C20.4661 12.0442 20.6592 12.0833 20.8545 12.0848C21.1498 12.0886 21.4397 12.0066 21.6872 11.8491C21.9348 11.6917 22.129 11.466 22.2451 11.2007C22.3613 10.9353 22.3941 10.6422 22.3396 10.3585C22.285 10.0749 22.1455 9.81344 21.9387 9.60737C21.7319 9.4013 21.4671 9.25987 21.1779 9.20102C20.8888 9.14218 20.5882 9.16856 20.3144 9.27682C20.0406 9.38508 19.8059 9.57035 19.64 9.80914C19.4741 10.0479 19.3845 10.3295 19.3825 10.6181Z" fill="white"/>
<path d="M11.6725 12.0825C12.5001 12.0509 13.165 11.3739 13.1316 10.5957C13.0971 9.79129 12.3999 9.13846 11.6057 9.17005C11.2105 9.1787 10.8349 9.34043 10.5617 9.61965C10.2885 9.89886 10.14 10.2727 10.1488 10.6589C10.1577 11.0451 10.3232 11.4121 10.6089 11.6791C10.8947 11.946 11.2773 12.0912 11.6725 12.0825Z" fill="white"/>
</svg>

<svg width="32" height="28" viewBox="0 0 32 28" fill="none" xmlns="http://www.w3.org/2000/svg"><path d="M2.474 13.647c.013 7.434 6.21 13.478 13.806 13.465 7.596-.012 13.794-6.07 13.78-13.49C30.047 6.202 23.852.144 16.256.157 8.657.169 2.46 6.227 2.475 13.647zm13.787 12.004a12.439 12.439 0 01-8.62-3.558 11.875 11.875 0 01-3.56-8.456c0-3.167 1.28-6.206 3.56-8.455a12.439 12.439 0 018.62-3.558c6.789 0 12.318 5.395 12.3 12.014-.016 6.645-5.518 12.018-12.301 12.01l.001.003z" fill="#fff"/><path d="M21.872 19.768l1.148-.875c-3.279-4.236-10.08-4.408-13.507 0l1.15.874c1.47-1.717 3.312-2.664 5.604-2.657 2.292.008 4.132.938 5.605 2.658zm-2.489-9.15a1.42 1.42 0 00.424 1.032 1.486 1.486 0 001.048.435c.295.004.585-.078.832-.236.248-.157.442-.383.558-.648a1.427 1.427 0 00-.306-1.594 1.524 1.524 0 00-1.624-.33 1.485 1.485 0 00-.675.532c-.166.239-.256.52-.258.81zm-7.711 1.464c.828-.031 1.493-.708 1.46-1.486-.035-.805-.732-1.458-1.526-1.426-.396.009-.771.17-1.044.45a1.438 1.438 0 00-.413 1.039c.009.386.174.753.46 1.02a1.51 1.51 0 001.063.403z" fill="#fff"/></svg>
